X:559
T:Cafouillee
M:2/2
L:1/8
Q:200
K:G
D2 G2 G2 FE | D2 B2 B2 AB | c2 A2 A2 GA |
B2 G2 G2 FE |D2 G2 G2 FE | D2 B2 B2 AB |
c2 A2 A2 GA |GFGA G4 :||
B2 c2 d4 | A2 B2 c4 | G2 A2 B2 cB |
A2 G2 A4 | B2 c2 d4 | A2 B2 c4 |
G2 A2 B2 cB | A2 F2 G4 :||
